X:190
T:Rock Abbey. VWMLa.190
%%VWML:Anon2-3049-p118-0
F:http://www.vwml.org/record/Anon2/3049/p118
S:Anon. MS, late 18thC, Vaughan Williams Mem. Library
O:England;Yorkshire
Z:vmp/efdss.Simon Wilson. Reviewed PJH 2008.
M:2/4
L:1/8
Q:1/4=120
K:Bb
"P"d>e dc|dB !turn!B3/2A/4B/4|ce/c/ Ac/A/|BF!turn!F2|\
"^F"d>e dc|dB2b|agf=e|g2f2:|
|:"P"fg/f/ df|edc2|ec/A/ Fe|dcBD|\
"^F"(EF).G.A|.B.c.d.D|EcFA|B2B,2:|
T:Valentine Day. VWMLa.191
R:Country-dance
S:Anon. MS, late 18thC, Vaughan Williams Mem. Library
O:England;Yorkshire
Z:vmp/efdss.Simon Wilson. Reviewed PJH 2008.
M:2/4
L:1/8
Q:1/4=120
K:D
a/g/|fbea|d>eff|g/a/b/a/ g/f/e/d/|c/d/e/c/ A(a/g/)|\
fbea|d>efg|bgec|d2d2:|
|:"P"[df][df][df][df]|[ce][ce][ce][ce]|\
[Bg][Bg][Bg][Bg]|[Af][Af][Af][Af]|\
[.B.g](b/g/) (b/g/)(b/g/)|[.A.f](a/f/) (a/f/)(a/f/)|\
gedc|d2D2:|
